build/img/icons/house3.svg

<svg width="120" height="102" viewBox="0 0 120 102" fill="none" xmlns="http://www.w3.org/2000/svg">
<path d="M101.417 54H119.167L60 0.75L0.833336 54H18.5833V101.333H30.4167V89.5H89.5833V101.333H101.417V54ZM31.6592 42.1667H88.3408L89.5833 43.2908V54H30.4167V43.2908L31.6592 42.1667ZM75.2058 30.3333H44.7942L60 16.6658L75.2058 30.3333ZM30.4167 77.6667V65.8333H89.5833V77.6667H30.4167Z" fill="#F3F3F3"/>
</svg>

<svg width="120" height="102" fill="none" xmlns="http://www.w3.org/2000/svg">
    <path d="M101.417 54h17.75L60 .75.833 54h17.75v47.333h11.834V89.5h59.166v11.833h11.834V54zM31.659 42.167h56.682l1.242 1.124V54H30.417V43.29l1.242-1.123zm43.547-11.834H44.794L60 16.666l15.206 13.667zm-44.79 47.334V65.833h59.167v11.834H30.417z" fill="#F3F3F3"/>
</svg>
